X: 8573
T: Crock Of Gold, The
R: reel
M: 4/4
K: Gmajor
|:B3 A BAGE|G3 A GEDB,|DEGA BAGA|BedB BAAc|
B3 A BAGE|G3 A GE D2|g2 fg egdB|DEGA BGGA:|
|:eaab a2 ga|baga bagf|gedB GA B/c/d|egdB BAAB|
eaab a2 ga|baga bagf|g2 fg egdB|1 DEGA BGGB:|2 DEGA BAGA||

